frontend/src/assets/figma/group-12140.svg

<svg preserveAspectRatio="none" width="100%" height="100%" overflow="visible" style="display: block;" viewBox="0 0 101 129.871" fill="none" xmlns="http://www.w3.org/2000/svg">
<g id="Group 12140">
<path id="Vector" d="M0 47.5048C14.1745 48.6929 27.2809 53.6778 38.3211 61.4521C41.3978 63.6153 44.3146 65.9269 47.0459 68.4193H101C100.52 67.341 100.009 66.2562 99.4904 65.165C92.2432 49.9521 81.7723 36.5988 68.9794 26.0027C50.1034 10.3636 26.1551 0.729651 0 0V47.5048Z" fill="var(--fill-0, #111111)"/>
<path id="Vector_2" d="M0 108.955C14.1745 110.143 27.2809 115.128 38.3211 122.903C41.3978 125.066 44.3146 127.378 47.0459 129.871H101C100.52 128.793 100.009 127.708 99.4904 126.616C92.2432 111.402 81.7723 98.0475 68.9794 87.4504C50.1034 71.8163 26.1487 62.1749 0 61.4517V108.961V108.955Z" fill="var(--fill-0, #111111)"/>
</g>
</svg>

<svg xmlns="http://www.w3.org/2000/svg" fill="none" overflow="visible" preserveAspectRatio="none" style="display:block" viewBox="0 0 101 129.871"><path fill="var(--fill-0, #111111)" d="M0 47.505c14.175 1.188 27.28 6.173 38.321 13.947 3.077 2.163 5.994 4.475 8.725 6.967H101c-.48-1.078-.991-2.163-1.51-3.254a115.3 115.3 0 0 0-30.51-39.162C50.102 10.363 26.154.73 0 0zm0 61.45c14.175 1.188 27.28 6.173 38.321 13.948 3.077 2.163 5.994 4.475 8.725 6.968H101a147 147 0 0 0-1.51-3.255A115.3 115.3 0 0 0 68.98 87.45C50.102 71.816 26.148 62.175 0 61.452v47.509z"/></svg>
